icons/lines/shield-tick.svg

<svg xmlns="http://www.w3.org/2000/svg" width="24" height="24" viewBox="0 0 24 24" fill="none" stroke="currentColor" stroke-width="2" stroke-linecap="round" stroke-linejoin="round" >
  <path d="M10.4902 2.23006L5.50016 4.11006C4.35016 4.54006 3.41016 5.90006 3.41016 7.12006V14.5501C3.41016 15.7301 4.19016 17.2801 5.14016 17.9901L9.44016 21.2001C10.8502 22.2601 13.1702 22.2601 14.5802 21.2001L18.8802 17.9901C19.8302 17.2801 20.6102 15.7301 20.6102 14.5501V7.12006C20.6102 5.89006 19.6702 4.53006 18.5202 4.10006L13.5302 2.23006C12.6802 1.92006 11.3202 1.92006 10.4902 2.23006Z"/>
  <path d="M9.0498 11.8701L10.6598 13.4801L14.9598 9.18005"/>
  </svg>

<svg xmlns="http://www.w3.org/2000/svg" width="24" height="24" viewBox="0 0 24 24" fill="none" stroke="currentColor" stroke-width="2" stroke-linecap="round" stroke-linejoin="round">
  <path d="M5.5 4.11c-1.15.43-2.09 1.79-2.09 3.01v7.43c0 1.18.78 2.73 1.73 3.44l4.3 3.21c1.41 1.06 3.73 1.06 5.14 0l4.3-3.21c.95-.71 1.73-2.26 1.73-3.44V7.12c0-1.23-.94-2.59-2.09-3.02l-4.99-1.87c-.85-.31-2.21-.31-3.04 0z" />
  <path d="m9.05 11.87 1.61 1.61 4.3-4.3" />
</svg>
